X: 22449
T: Lads Of Laois, The
R: reel
M: 4/4
K: Edorian
EB,~B,2 EGFE|DA,~A,2 DEFD|GEED EFGA|B2ec dBAF|
EB,~B,2 EGFE|DA,~A,2 DEFD|E2BE dEBE|DEFA BFAF|
EB,~B,2 EGFE|DA,~A,2 DEFD|GEED EFGA|B2ec dBAF|
E2B,E GEB,E|D2A,D FDA,D|(3Bcd ec dBAF|DEFA BE~E2||
eB~B2 egfe|defa gfed|(3Bcd ef ~g3e|fgaf gfed|
efed BAFA|BE~E2 (3Bcd ef|~g3e ~f3d|efed BAgf|
eB~B2 egfe|defa gfed|(3Bcd ef ~g3e|fgaf gfed|
eB~B2 GBFB|EBBA (3Bcd ef|~g3e ~f3d|efed BAFD||

